apps/docs/public/icons/cust/stack.svg

<svg width="164" height="37" viewBox="0 0 164 37" fill="none" xmlns="http://www.w3.org/2000/svg">
<g clip-path="url(#clip0_103_61)">
<path d="M14.4208 2.58158C12.1534 3.78878 10.3021 4.80262 10.3128 4.82352C10.3235 4.86011 18.4541 9.12974 18.5715 9.1611C18.6195 9.17677 26.7821 4.22254 26.7821 4.18073C26.7821 4.13369 18.6888 0.365756 18.6035 0.370982C18.5715 0.376208 16.6829 1.36915 14.4208 2.58158Z" fill="white"/>
<path d="M74.0508 2.03804L71.1431 3.64765L71.1271 4.95937L71.1165 6.27109H68.8757H66.635V8.77957V11.288H68.8757H71.1111L71.1325 17.021C71.1485 23.1354 71.1485 23.0361 71.4152 24.1962C72.1035 27.1855 74.0881 29.1662 77.0384 29.8089C78.7029 30.1695 81.0344 30.0859 82.9123 29.6051C83.3071 29.5006 84.5822 29.0825 84.6569 29.0303C84.6782 29.0094 83.0617 24.1701 83.0137 24.1231C82.987 24.0969 82.7789 24.1544 82.5228 24.2589C80.6822 25.0272 78.863 24.907 77.908 23.9506C77.5452 23.5848 77.2198 22.9472 77.1184 22.3933C77.0544 22.0484 77.0437 21.0188 77.0384 16.6342V11.288L80.3621 11.2776L83.6806 11.2619L83.6966 8.76389L83.7072 6.27109H80.3995H77.0917V3.34454C77.0917 1.03465 77.0757 0.417984 77.0277 0.42321C76.9904 0.428436 75.6513 1.15485 74.0508 2.03804Z" fill="white"/>
<path d="M144.49 2.04332L141.539 3.66861V16.7022V29.7358H144.527H147.515L147.525 24.4367L147.541 19.1323L152.215 24.421L156.883 29.7097L160.441 29.7254L164 29.7358V29.485V29.2341L158.478 23.2765C155.442 20.005 152.962 17.298 152.972 17.2614C152.978 17.23 155.176 14.7947 157.854 11.8577C161.925 7.38951 162.72 6.49587 162.72 6.37044V6.21889H159.15H155.576L151.559 10.9118L147.541 15.61L147.525 8.0114C147.52 3.83584 147.499 0.418041 147.472 0.418041C147.451 0.418041 146.106 1.14968 144.49 2.04332Z" fill="white"/>
<path d="M23.0475 7.5202L18.6994 10.2273L18.6674 13.1747C18.6514 14.7948 18.6301 19.1951 18.6247 22.9473L18.6194 29.7725L22.9941 32.2391C25.4056 33.5927 27.3849 34.7006 27.3956 34.7006C27.4116 34.7006 27.4222 32.4691 27.4222 29.7463V24.7921L23.0475 22.4717C20.6414 21.1914 18.6727 20.1357 18.6727 20.1201C18.6727 20.1044 20.6467 19.0069 23.0635 17.6795L27.4489 15.2703L27.4649 10.0391C27.4703 7.1596 27.4596 4.80791 27.4383 4.81313C27.4116 4.81313 25.4376 6.03079 23.0475 7.5202Z" fill="white"/>
<path d="M53.2173 5.57091C52.2303 5.65453 50.7258 5.94196 49.8295 6.22416C49.3707 6.37049 48.4744 6.75198 48.0263 6.98715C45.9083 8.11597 44.6332 9.81441 44.3291 11.9048C44.2384 12.5372 44.2917 13.8071 44.4358 14.4133C44.6919 15.4951 45.1507 16.3469 45.9029 17.1256C46.4684 17.7109 47.1193 18.2021 47.7755 18.5366C49.7709 19.5609 51.3234 19.9372 54.8979 20.2507C57.8481 20.512 58.9578 21.1705 58.9578 22.6547C58.9578 22.916 58.9258 23.1825 58.8671 23.3393C58.403 24.6876 56.4557 25.6073 54.3377 25.4767C51.8729 25.3251 48.8159 24.2277 47.1193 22.8846C46.9006 22.7069 46.6498 22.4822 46.5591 22.3829C46.4258 22.2366 46.3884 22.2157 46.3297 22.2732C46.2924 22.3098 45.6255 23.2452 44.8412 24.3531L43.4221 26.3651L43.8489 26.7623C46.0256 28.8004 48.5918 29.9972 51.6221 30.3891C52.5558 30.5093 54.7751 30.5825 55.6448 30.5198C58.8885 30.2794 61.2466 29.3596 62.8791 27.6873C64.421 26.1143 65.0665 24.1545 64.8211 21.8133C64.7037 20.6636 64.2556 19.4564 63.642 18.6516C63.3006 18.1969 62.591 17.5332 62.0949 17.2092C60.4357 16.1117 58.387 15.5735 54.7645 15.286C53.1053 15.1501 52.2303 14.9725 51.4301 14.5962C49.6588 13.7653 49.6748 11.6592 51.4621 10.8701C52.6945 10.3266 54.7912 10.1959 56.6584 10.5565C57.9442 10.8021 59.0219 11.3038 60.0675 12.14C60.457 12.4535 60.4623 12.4535 60.5477 12.3438C60.5957 12.2863 61.3266 11.4397 62.1749 10.4624C63.0178 9.48517 63.7167 8.6647 63.7167 8.64379C63.7221 8.57585 62.8738 7.91738 62.3083 7.55156C61.1772 6.8147 60.0142 6.313 58.6911 5.98899C57.4907 5.69111 56.5411 5.58659 54.8979 5.56568C54.1189 5.56046 53.3667 5.56046 53.2173 5.57091Z" fill="white"/>
<path d="M128.308 5.59177C123.838 6.00462 120.284 8.17863 118.497 11.5964C117.692 13.1329 117.27 14.6536 117.099 16.6134C117.019 17.5279 117.062 19.3675 117.185 20.2245C117.953 25.6909 121.629 29.3648 127.236 30.2532C129.322 30.5877 131.68 30.4884 133.499 29.9971C134.561 29.7097 135.745 29.1976 136.631 28.6488C137.367 28.1889 139.032 26.872 139.032 26.7466C139.032 26.7204 138.472 26.1613 137.794 25.5132C137.111 24.8652 136.22 24.0134 135.82 23.6267L135.089 22.9264L134.897 23.0779C134.23 23.611 133.921 23.8148 133.35 24.0918C132.608 24.4524 132.24 24.5726 131.429 24.7189C129.631 25.0481 127.641 24.7816 126.281 24.0238C124.344 22.9525 123.219 21.1182 123.027 18.709C122.755 15.3487 124.419 12.5476 127.321 11.471C128.484 11.0425 130.021 10.917 131.221 11.1574C132.379 11.3926 133.585 11.9466 134.449 12.6573C134.582 12.767 134.705 12.8559 134.721 12.8559C134.785 12.8559 138.418 9.08273 138.418 9.02001C138.418 8.98343 138.253 8.80052 138.045 8.61761C136.183 6.9453 134.246 6.01507 131.883 5.67016C131.168 5.56564 129.098 5.5186 128.308 5.59177Z" fill="white"/>
<path d="M97.7065 5.70154C91.8753 6.25027 87.8793 9.89279 87.0204 15.4271C86.7269 17.298 86.7536 19.2107 87.0951 21.0346C87.9753 25.7066 90.9096 28.884 95.3964 30.0181C97.2477 30.4832 99.4137 30.5772 100.966 30.2585C102.567 29.9292 103.97 29.323 105.16 28.445C105.832 27.9538 106.547 27.1542 106.867 26.548C106.963 26.3703 106.995 26.339 107.006 26.4174C107.022 26.5428 107.288 29.6209 107.288 29.6888C107.288 29.715 108.462 29.7359 110.089 29.7359H112.89V17.9774V6.21892H110.036H107.182V6.33389C107.182 6.45931 107.027 9.07753 107.006 9.30225C106.995 9.41199 106.958 9.37541 106.733 9.04095C106.381 8.51835 105.512 7.68219 104.898 7.27456C103.634 6.42796 102.06 5.86355 100.502 5.70154C99.9152 5.63883 98.3627 5.63883 97.7065 5.70154ZM101.238 10.9537C102.721 11.1732 104.183 11.9675 105.106 13.0493C105.512 13.5196 105.826 13.9691 106.024 14.3558C107.48 17.1726 107.064 20.7576 105.032 22.9787C103.756 24.374 102.049 25.0847 99.9419 25.09C97.8506 25.0952 96.138 24.4524 94.8256 23.1616C93.4705 21.8342 92.7769 20.0626 92.7769 17.9199C92.7769 14.3871 94.8309 11.7428 98.1333 11.0216C99.0669 10.8178 100.177 10.7917 101.238 10.9537Z" fill="white"/>
<path d="M5.71907 17.9303C3.36631 19.357 1.42434 20.5381 1.40834 20.5485C1.39233 20.5642 2.81679 21.3585 4.57203 22.3149C6.32727 23.2765 8.32792 24.3687 9.02148 24.745L10.2806 25.4348L14.4099 22.8009C16.6826 21.3533 18.5446 20.1513 18.5552 20.1252C18.5659 20.0886 16.2345 18.7821 10.51 15.6152L10.0031 15.333L5.71907 17.9303Z" fill="white"/>
<path d="M32.7733 22.2262L28.3826 24.8966V29.83C28.3826 32.5423 28.4039 34.7528 28.4252 34.7424C28.4519 34.7372 30.4312 33.577 32.8267 32.1712L37.1854 29.6157V24.5831C37.1854 21.8133 37.1801 19.5452 37.1748 19.5504C37.1641 19.5504 35.1848 20.7524 32.7733 22.2262Z" fill="white"/>
<path d="M1.22705 26.6943V31.6485L5.58047 33.995C7.97591 35.2911 9.96056 36.3572 9.9819 36.3624C10.0086 36.3728 10.0246 34.225 10.0192 31.4082L10.0032 26.433L5.65516 24.0865C3.26505 22.7957 1.29107 21.7401 1.26973 21.7401C1.24306 21.7401 1.22705 23.9663 1.22705 26.6943Z" fill="white"/>
</g>
<defs>
<clipPath id="clip0_103_61">
<rect width="164" height="37" fill="white"/>
</clipPath>
</defs>
</svg>

<svg xmlns="http://www.w3.org/2000/svg" width="164" height="37" fill="none" viewBox="0 0 164 37"><g fill="#fff" clip-path="url(#a)"><path d="M14.42 2.582c-2.267 1.207-4.118 2.22-4.107 2.242.01.036 8.141 4.306 8.259 4.337.047.016 8.21-4.938 8.21-4.98 0-.047-8.093-3.815-8.178-3.81-.032.005-1.921.998-4.183 2.21M74.05 2.038l-2.907 1.61-.016 1.311-.01 1.312h-4.482v5.017h4.476l.021 5.733c.016 6.114.016 6.015.283 7.175.688 2.99 2.673 4.97 5.623 5.613 1.665.36 3.996.277 5.874-.204.395-.104 1.67-.523 1.745-.575.021-.02-1.595-4.86-1.643-4.907-.027-.026-.235.031-.491.136-1.84.768-3.66.648-4.615-.308-.363-.366-.688-1.004-.79-1.558-.064-.345-.074-1.374-.08-5.759v-5.346l3.324-.01 3.319-.016.016-2.498.01-2.493h-6.615V3.345c0-2.31-.016-2.927-.064-2.922-.038.005-1.377.732-2.977 1.615M144.49 2.043l-2.951 1.626v26.067h5.976l.01-5.3.016-5.304 4.674 5.289 4.668 5.289 3.558.015 3.559.01v-.5l-5.522-5.959c-3.036-3.271-5.516-5.978-5.506-6.015.006-.031 2.204-2.466 4.882-5.403 4.071-4.468 4.866-5.362 4.866-5.488V6.22h-7.144l-4.017 4.693-4.018 4.698-.016-7.599c-.005-4.175-.026-7.593-.053-7.593-.021 0-1.366.732-2.982 1.625M23.048 7.52l-4.349 2.707-.032 2.948c-.016 1.62-.037 6.02-.042 9.772l-.006 6.826 4.375 2.466a736 736 0 0 0 4.402 2.462c.016 0 .026-2.232.026-4.955v-4.954l-4.375-2.32c-2.406-1.28-4.374-2.336-4.374-2.352s1.974-1.113 4.39-2.44l4.386-2.41.016-5.23c.005-2.88-.005-5.232-.027-5.227-.026 0-2 1.218-4.39 2.707M53.217 5.57c-.987.085-2.491.372-3.387.654-.46.146-1.356.528-1.804.763-2.118 1.129-3.393 2.827-3.697 4.918-.09.632-.037 1.902.107 2.508.256 1.082.715 1.934 1.467 2.713a7.2 7.2 0 0 0 1.873 1.41c1.995 1.025 3.547 1.401 7.122 1.715 2.95.261 4.06.92 4.06 2.404 0 .261-.032.527-.09.684-.465 1.349-2.412 2.268-4.53 2.138-2.465-.152-5.522-1.25-7.219-2.592a7 7 0 0 1-.56-.502c-.133-.146-.17-.167-.23-.11-.037.037-.703.972-1.488 2.08l-1.419 2.012.427.397c2.177 2.038 4.743 3.235 7.773 3.627.934.12 3.153.194 4.023.13 3.243-.24 5.602-1.16 7.234-2.832q2.312-2.361 1.942-5.874c-.117-1.15-.565-2.357-1.179-3.161-.341-.455-1.051-1.119-1.547-1.443-1.66-1.097-3.708-1.636-7.33-1.923-1.66-.136-2.535-.313-3.335-.69-1.771-.83-1.755-2.937.032-3.726 1.232-.543 3.33-.674 5.196-.313 1.286.245 2.364.747 3.41 1.583.389.313.394.313.48.204.048-.058.779-.904 1.627-1.882.843-.977 1.542-1.797 1.542-1.818.005-.068-.843-.727-1.409-1.092a11.5 11.5 0 0 0-3.617-1.563c-1.2-.298-2.15-.402-3.793-.423a49 49 0 0 0-1.68.005M128.308 5.592c-4.47.413-8.024 2.587-9.811 6.004-.805 1.537-1.227 3.058-1.398 5.017-.08.915-.037 2.755.086 3.611.768 5.467 4.444 9.14 10.051 10.03 2.086.334 4.444.234 6.263-.257 1.062-.287 2.246-.8 3.132-1.348.736-.46 2.401-1.777 2.401-1.902 0-.027-.56-.586-1.238-1.234-.683-.648-1.574-1.5-1.974-1.886l-.731-.7-.192.15c-.667.534-.976.738-1.547 1.015-.742.36-1.11.48-1.921.627-1.798.33-3.788.063-5.148-.695-1.937-1.072-3.062-2.906-3.254-5.315-.272-3.36 1.392-6.161 4.294-7.238 1.163-.428 2.7-.554 3.9-.314 1.158.236 2.364.79 3.228 1.5.133.11.256.199.272.199.064 0 3.697-3.773 3.697-3.836 0-.037-.165-.22-.373-.402-1.862-1.673-3.799-2.603-6.162-2.948-.715-.104-2.785-.151-3.575-.078M97.707 5.702c-5.832.548-9.828 4.19-10.687 9.725a16.6 16.6 0 0 0 .075 5.608c.88 4.672 3.815 7.849 8.301 8.983 1.852.465 4.018.56 5.57.24 1.601-.329 3.004-.935 4.194-1.813.672-.491 1.387-1.29 1.707-1.897.096-.178.128-.209.139-.13.016.125.282 3.203.282 3.27 0 .027 1.174.048 2.801.048h2.801V6.219h-5.708v.115c0 .125-.155 2.744-.176 2.968-.011.11-.048.073-.273-.261-.352-.523-1.221-1.359-1.835-1.766-1.264-.847-2.838-1.411-4.396-1.573-.587-.063-2.14-.063-2.795 0m3.531 5.252c1.483.22 2.945 1.013 3.868 2.095.406.47.72.92.918 1.307 1.456 2.817 1.04 6.402-.992 8.623-1.276 1.395-2.983 2.106-5.09 2.111-2.091.005-3.804-.638-5.116-1.928-1.355-1.328-2.05-3.1-2.05-5.242 0-3.533 2.055-6.177 5.357-6.898.934-.204 2.044-.23 3.105-.068M5.72 17.93a2785 2785 0 0 0-4.312 2.619c-.016.015 1.409.81 3.164 1.766 1.755.961 3.756 2.054 4.45 2.43l1.259.69L14.41 22.8c2.273-1.448 4.135-2.65 4.145-2.676.01-.036-2.32-1.343-8.045-4.51l-.507-.282zM32.773 22.226l-4.39 2.67v4.934c0 2.712.02 4.923.042 4.912.027-.005 2.006-1.165 4.402-2.57l4.358-2.556v-5.033a628 628 0 0 0-.01-5.033c-.01 0-1.99 1.202-4.402 2.676M1.227 26.694v4.954l4.353 2.347a567 567 0 0 0 4.402 2.367c.027.01.043-2.137.037-4.954l-.016-4.975-4.348-2.346c-2.39-1.291-4.364-2.347-4.385-2.347-.027 0-.043 2.226-.043 4.954"/></g><defs><clipPath id="a"><path fill="#fff" d="M0 0h164v37H0z"/></clipPath></defs></svg>
